; G-Code generated by Simplify3D(R) Version 4.1.2
; Jul 26, 2020 at 8:30:58 AM
; Settings Summary
;   processName,Process1
;   applyToModels,unidisk_case(3)
;   profileName,Wanhao Duplicator i3 (modified)
;   profileVersion,2019-12-15 13:33:55
;   baseProfile,
;   printMaterial,
;   printQuality,
;   printExtruders,
;   extruderName,Primary Extruder
;   extruderToolheadNumber,0
;   extruderDiameter,0.4
;   extruderAutoWidth,0
;   extruderWidth,0.4
;   extrusionMultiplier,0.95
;   extruderUseRetract,1
;   extruderRetractionDistance,0.5
;   extruderExtraRestartDistance,0
;   extruderRetractionZLift,0
;   extruderRetractionSpeed,1800
;   extruderUseCoasting,0
;   extruderCoastingDistance,0.2
;   extruderUseWipe,0
;   extruderWipeDistance,5
;   primaryExtruder,0
;   layerHeight,0.2
;   topSolidLayers,3
;   bottomSolidLayers,3
;   perimeterOutlines,3
;   printPerimetersInsideOut,1
;   startPointOption,2
;   startPointOriginX,0
;   startPointOriginY,0
;   sequentialIslands,0
;   spiralVaseMode,0
;   firstLayerHeightPercentage,90
;   firstLayerWidthPercentage,100
;   firstLayerUnderspeed,0.5
;   useRaft,0
;   raftExtruder,0
;   raftTopLayers,3
;   raftBaseLayers,2
;   raftOffset,3
;   raftSeparationDistance,0.14
;   raftTopInfill,100
;   aboveRaftSpeedMultiplier,0.3
;   useSkirt,1
;   skirtExtruder,0
;   skirtLayers,1
;   skirtOutlines,2
;   skirtOffset,5
;   usePrimePillar,0
;   primePillarExtruder,999
;   primePillarWidth,12
;   primePillarLocation,7
;   primePillarSpeedMultiplier,1
;   useOozeShield,0
;   oozeShieldExtruder,999
;   oozeShieldOffset,2
;   oozeShieldOutlines,1
;   oozeShieldSidewallShape,1
;   oozeShieldSidewallAngle,30
;   oozeShieldSpeedMultiplier,1
;   infillExtruder,0
;   internalInfillPattern,Rectilinear
;   externalInfillPattern,Rectilinear
;   infillPercentage,15
;   outlineOverlapPercentage,25
;   infillExtrusionWidthPercentage,125
;   minInfillLength,5
;   infillLayerInterval,1
;   internalInfillAngles,45,-45
;   overlapInternalInfillAngles,0
;   externalInfillAngles,45,-45
;   generateSupport,0
;   supportExtruder,0
;   supportInfillPercentage,30
;   supportExtraInflation,0
;   supportBaseLayers,0
;   denseSupportExtruder,0
;   denseSupportLayers,0
;   denseSupportInfillPercentage,70
;   supportLayerInterval,1
;   supportHorizontalPartOffset,0.3
;   supportUpperSeparationLayers,1
;   supportLowerSeparationLayers,1
;   supportType,0
;   supportGridSpacing,1
;   maxOverhangAngle,45
;   supportAngles,0
;   temperatureName,Primary Extruder,Heated Bed
;   temperatureNumber,0,0
;   temperatureSetpointCount,1,1
;   temperatureSetpointLayers,1,1
;   temperatureSetpointTemperatures,210,60
;   temperatureStabilizeAtStartup,1,1
;   temperatureHeatedBed,0,1
;   fanLayers,1,2,3
;   fanSpeeds,0,20,60
;   blipFanToFullPower,0
;   adjustSpeedForCooling,1
;   minSpeedLayerTime,15
;   minCoolingSpeedSlowdown,20
;   increaseFanForCooling,0
;   minFanLayerTime,45
;   maxCoolingFanSpeed,100
;   increaseFanForBridging,0
;   bridgingFanSpeed,100
;   use5D,1
;   relativeEdistances,0
;   allowEaxisZeroing,1
;   independentExtruderAxes,0
;   includeM10123,0
;   stickySupport,1
;   applyToolheadOffsets,0
;   gcodeXoffset,0
;   gcodeYoffset,0
;   gcodeZoffset,0
;   overrideMachineDefinition,1
;   machineTypeOverride,0
;   strokeXoverride,195
;   strokeYoverride,150
;   strokeZoverride,150
;   originOffsetXoverride,0
;   originOffsetYoverride,0
;   originOffsetZoverride,0
;   homeXdirOverride,-1
;   homeYdirOverride,-1
;   homeZdirOverride,-1
;   flipXoverride,1
;   flipYoverride,-1
;   flipZoverride,1
;   toolheadOffsets,0,0|0,0|0,0|0,0|0,0|0,0
;   overrideFirmwareConfiguration,1
;   firmwareTypeOverride,RepRap (Marlin/Repetier/Sprinter)
;   GPXconfigOverride,r2
;   baudRateOverride,115200
;   overridePrinterModels,1
;   printerModelsOverride
;   startingGcode,G28 ; home all axes
;   layerChangeGcode,
;   retractionGcode,
;   toolChangeGcode,
;   endingGcode,G28 X0 ; home X-axis,M104 S0 ; turn off extruder,M140 S0 ; turn off bed,M84 ; disable motors
;   exportFileFormat,gcode
;   celebration,0
;   celebrationSong,Random Song
;   postProcessing,
;   defaultSpeed,3600
;   outlineUnderspeed,0.5
;   solidInfillUnderspeed,0.8
;   supportUnderspeed,0.8
;   rapidXYspeed,3600
;   rapidZspeed,1002
;   minBridgingArea,50
;   bridgingExtraInflation,0
;   bridgingExtrusionMultiplier,1
;   bridgingSpeedMultiplier,1
;   useFixedBridgingAngle,0
;   fixedBridgingAngle,0
;   applyBridgingToPerimeters,0
;   filamentDiameters,1.75|1.75|1.75|1.75|1.75|1.75
;   filamentPricesPerKg,46|46|46|46|46|46
;   filamentDensities,1.25|1.25|1.25|1.25|1.25|1.25
;   useMinPrintHeight,0
;   minPrintHeight,0
;   useMaxPrintHeight,0
;   maxPrintHeight,0
;   useDiaphragm,0
;   diaphragmLayerInterval,20
;   robustSlicing,1
;   mergeAllIntoSolid,0
;   onlyRetractWhenCrossingOutline,0
;   retractBetweenLayers,1
;   useRetractionMinTravel,0
;   retractionMinTravel,3
;   retractWhileWiping,0
;   onlyWipeOutlines,1
;   avoidCrossingOutline,1
;   maxMovementDetourFactor,3
;   toolChangeRetractionDistance,12
;   toolChangeExtraRestartDistance,-0.5
;   toolChangeRetractionSpeed,600
;   externalThinWallType,0
;   internalThinWallType,2
;   thinWallAllowedOverlapPercentage,10
;   singleExtrusionMinLength,1
;   singleExtrusionMinPrintingWidthPercentage,50
;   singleExtrusionMaxPrintingWidthPercentage,200
;   singleExtrusionEndpointExtension,0.2
;   horizontalSizeCompensation,0
G90
M82
M106 S0
M140 S60
M190 S60
M104 S210 T0
M109 S210 T0
G28 ; home all axes
; process Process1
; layer 1, Z = 0.180
T0
G92 E0.0000
G1 E-0.5000 F1800
; feature skirt
; tool H0.180 W0.400
G1 Z0.180 F1002
G1 X24.038 Y31.083 F3600
G1 E0.0000 F1800
G92 E0.0000
G1 X27.116 Y31.083 E0.0875 F1800
G1 X32.591 Y28.530 E0.2593
G1 X34.038 Y27.083 E0.3175
G1 X104.644 Y27.083 E2.3254
G1 X106.400 Y26.668 E2.3767
G1 X106.458 Y26.655 E2.3784
G1 X108.145 Y26.294 E2.4274
G1 X108.185 Y26.286 E2.4286
G1 X110.279 Y25.870 E2.4893
G1 X110.343 Y25.858 E2.4911
G1 X116.565 Y24.771 E2.6708
G1 X120.355 Y27.422 E2.8023
G1 X121.544 Y34.063 E2.9941
G1 X118.918 Y37.861 E3.1255
G1 X113.700 Y38.831 E3.2764
G1 X113.648 Y38.840 E3.2779
G1 X111.346 Y39.222 E3.3442
G1 X111.275 Y39.233 E3.3463
G1 X109.243 Y39.517 E3.4046
G1 X108.678 Y40.083 E3.4274
G1 X38.576 Y40.083 E5.4209
G1 X37.958 Y40.372 E5.4403
G1 X37.958 Y40.803 E5.4525
G1 X34.678 Y44.083 E5.5845
G1 X24.038 Y44.083 E5.8870
G1 X20.758 Y40.803 E6.0189
G1 X20.758 Y34.364 E6.2020
G1 X24.038 Y31.083 E6.3340
G92 E0.0000
G1 E-0.5000 F1800
G1 X24.204 Y31.483 F3600
G1 E0.0000 F1800
G92 E0.0000
G1 X27.205 Y31.483 E0.0853 F1800
G1 X32.824 Y28.863 E0.2617
G1 X34.204 Y27.483 E0.3171
G1 X104.691 Y27.483 E2.3216
G1 X106.489 Y27.058 E2.3742
G1 X106.544 Y27.046 E2.3757
G1 X108.227 Y26.686 E2.4247
G1 X108.264 Y26.678 E2.4258
G1 X110.355 Y26.263 E2.4864
G1 X110.414 Y26.252 E2.4881
G1 X116.471 Y25.194 E2.6630
G1 X119.990 Y27.655 E2.7851
G1 X121.121 Y33.971 E2.9676
G1 X118.682 Y37.498 E3.0895
G1 X113.629 Y38.437 E3.2357
G1 X113.581 Y38.446 E3.2371
G1 X111.283 Y38.827 E3.3033
G1 X111.217 Y38.838 E3.3052
G1 X109.055 Y39.140 E3.3673
G1 X108.512 Y39.683 E3.3891
G1 X38.488 Y39.683 E5.3804
G1 X37.558 Y40.117 E5.4096
G1 X37.558 Y40.637 E5.4244
G1 X34.512 Y43.683 E5.5469
G1 X24.204 Y43.683 E5.8400
G1 X21.158 Y40.637 E5.9625
G1 X21.158 Y34.529 E6.1362
G1 X24.204 Y31.483 E6.2587
G92 E0.0000
G1 E-0.5000 F1800
; feature inner perimeter
G1 X26.558 Y36.883 F3600
G1 X28.402 Y36.883
G1 X29.034 Y36.589
G1 X29.613 Y37.201
G1 E0.0000 F1800
G92 E0.0000
G1 X31.358 Y36.388 E0.0547 F1350
G1 X31.358 Y37.483 E0.0859
G1 X29.676 Y37.483 E0.1337
G1 X29.613 Y37.201 E0.1419
G92 E0.0000
G1 E-0.5000 F1800
G1 X28.491 Y37.283 F3600
G1 E0.0000 F1800
G92 E0.0000
G1 X36.224 Y33.678 E0.2426 F1350
G1 X36.478 Y34.221 E0.2597
G1 X31.758 Y36.422 E0.4078
G1 X31.758 Y37.883 E0.4493
G1 X26.958 Y37.883 E0.5858
G1 X26.958 Y37.283 E0.6029
G1 X28.491 Y37.283 E0.6465
G92 E0.0000
G1 E-0.5000 F1800
G1 X36.450 Y33.883 F3600
G1 E0.0000 F1800
G92 E0.0000
G1 X36.387 Y33.601 E0.0082 F1350
G1 X37.069 Y33.283 E0.0296
G1 X105.370 Y33.283 E1.9719
G1 X106.492 Y33.007 E2.0048
G1 X107.788 Y32.711 E2.0426
G1 X109.417 Y32.362 E2.0899
G1 X111.451 Y31.958 E2.1489
G1 X113.944 Y31.505 E2.2210
G1 X114.764 Y31.372 E2.2446
G1 X114.929 Y32.296 E2.2713
G1 X112.599 Y32.729 E2.3387
G1 X110.370 Y33.100 E2.4029
G1 X108.564 Y33.372 E2.4549
G1 X105.758 Y33.740 E2.5354
G1 X105.758 Y33.883 E2.5394
G1 X36.450 Y33.883 E4.5104
G92 E0.0000
G1 E-0.5000 F1800
; feature outer perimeter
G1 X36.948 Y34.283 F3600
G1 E0.0000 F1800
G92 E0.0000
G1 X37.009 Y34.414 E0.0041 F900
G1 X32.158 Y36.677 E0.1563
G1 X32.158 Y38.283 E0.2020
G1 X26.558 Y38.283 E0.3613
G1 X26.558 Y36.883 E0.4011
G1 X28.402 Y36.883 E0.4535
G1 X36.558 Y33.080 E0.7094
G1 X36.558 Y32.883 E0.7150
G1 X105.321 Y32.883 E2.6705
G1 X106.399 Y32.618 E2.7021
G1 X107.702 Y32.320 E2.7401
G1 X109.336 Y31.970 E2.7876
G1 X111.376 Y31.565 E2.8467
G1 X113.876 Y31.111 E2.9190
G1 X115.088 Y30.914 E2.9539
G1 X115.393 Y32.617 E3.0031
G1 X112.669 Y33.123 E3.0819
G1 X110.433 Y33.495 E3.1463
G1 X108.621 Y33.768 E3.1985
G1 X106.158 Y34.091 E3.2691
G1 X106.158 Y34.283 E3.2746
G1 X36.948 Y34.283 E5.2427
G92 E0.0000
G1 E-0.5000 F1800
; feature gap fill
G1 X37.310 Y33.583 F3600
G1 E0.0000 F1800
G92 E0.0000
G1 X37.876 Y33.583 E0.0161 F1800
G1 X38.442 Y33.583 E0.0322
G1 X39.007 Y33.583 E0.0483
G1 X39.573 Y33.583 E0.0643
G1 X40.139 Y33.583 E0.0804
G1 X40.704 Y33.583 E0.0965
G1 X41.270 Y33.583 E0.1126
G1 X41.836 Y33.583 E0.1287
G1 X42.401 Y33.583 E0.1448
G1 X42.967 Y33.583 E0.1609
G1 X43.533 Y33.583 E0.1770
G1 X44.099 Y33.583 E0.1931
G1 X44.664 Y33.583 E0.2091
G1 X45.230 Y33.583 E0.2252
G1 X45.796 Y33.583 E0.2413
G1 X46.361 Y33.583 E0.2574
G1 X46.927 Y33.583 E0.2735
G1 X47.493 Y33.583 E0.2896
G1 X48.058 Y33.583 E0.3057
G1 X48.624 Y33.583 E0.3218
G1 X49.190 Y33.583 E0.3378
G1 X49.755 Y33.583 E0.3539
G1 X50.321 Y33.583 E0.3700
G1 X50.887 Y33.583 E0.3861
G1 X51.452 Y33.583 E0.4022
G1 X52.018 Y33.583 E0.4183
G1 X52.584 Y33.583 E0.4344
G1 X53.149 Y33.583 E0.4505
G1 X53.715 Y33.583 E0.4666
G1 X54.281 Y33.583 E0.4827
G1 X54.846 Y33.583 E0.4987
G1 X55.412 Y33.583 E0.5148
G1 X55.978 Y33.583 E0.5309
G1 X56.544 Y33.583 E0.5470
G1 X57.109 Y33.583 E0.5631
G1 X57.675 Y33.583 E0.5792
G1 X58.241 Y33.583 E0.5953
G1 X58.806 Y33.583 E0.6114
G1 X59.372 Y33.583 E0.6275
G1 X59.938 Y33.583 E0.6436
G1 X60.503 Y33.583 E0.6597
G1 X61.069 Y33.583 E0.6757
G1 X61.635 Y33.583 E0.6918
G1 X62.200 Y33.583 E0.7079
G1 X62.766 Y33.583 E0.7240
G1 X63.332 Y33.583 E0.7401
G1 X63.897 Y33.583 E0.7562
G1 X64.463 Y33.583 E0.7723
G1 X65.029 Y33.583 E0.7884
G1 X65.595 Y33.583 E0.8045
G1 X66.160 Y33.583 E0.8206
G1 X66.726 Y33.583 E0.8367
G1 X67.291 Y33.583 E0.8528
G1 X67.857 Y33.583 E0.8688
G1 X68.423 Y33.583 E0.8849
G1 X68.989 Y33.583 E0.9010
G1 X69.554 Y33.583 E0.9171
G1 X70.120 Y33.583 E0.9332
G1 X70.686 Y33.583 E0.9493
G1 X71.251 Y33.583 E0.9654
G1 X71.817 Y33.583 E0.9815
G1 X72.383 Y33.583 E0.9976
G1 X72.948 Y33.583 E1.0137
G1 X73.514 Y33.583 E1.0298
G1 X74.080 Y33.583 E1.0459
G1 X74.646 Y33.583 E1.0620
G1 X75.211 Y33.583 E1.0781
G1 X75.777 Y33.583 E1.0942
G1 X76.342 Y33.583 E1.1102
G1 X76.908 Y33.583 E1.1263
G1 X77.474 Y33.583 E1.1424
G1 X78.040 Y33.583 E1.1585
G1 X78.605 Y33.583 E1.1746
G1 X79.171 Y33.583 E1.1907
G1 X79.736 Y33.583 E1.2068
G1 X80.302 Y33.583 E1.2229
G1 X80.868 Y33.583 E1.2390
G1 X81.434 Y33.583 E1.2551
G1 X81.999 Y33.583 E1.2712
G1 X82.565 Y33.583 E1.2873
G1 X83.131 Y33.583 E1.3034
G1 X83.696 Y33.583 E1.3195
G1 X84.262 Y33.583 E1.3356
G1 X84.828 Y33.583 E1.3517
G1 X85.393 Y33.583 E1.3678
G1 X85.959 Y33.583 E1.3839
G1 X86.525 Y33.583 E1.4000
G1 X87.091 Y33.583 E1.4161
G1 X87.656 Y33.583 E1.4322
G1 X88.222 Y33.583 E1.4482
G1 X88.787 Y33.583 E1.4643
G1 X89.353 Y33.583 E1.4804
G1 X89.919 Y33.583 E1.4965
G1 X90.485 Y33.583 E1.5126
G1 X91.050 Y33.583 E1.5287
G1 X91.616 Y33.583 E1.5448
G1 X92.182 Y33.583 E1.5609
G1 X92.747 Y33.583 E1.5770
G1 X93.313 Y33.583 E1.5931
G1 X93.879 Y33.583 E1.6092
G1 X94.444 Y33.583 E1.6253
G1 X95.010 Y33.583 E1.6414
G1 X95.576 Y33.583 E1.6575
G1 X96.142 Y33.583 E1.6736
G1 X96.707 Y33.583 E1.6897
G1 X97.273 Y33.583 E1.7058
G1 X97.838 Y33.583 E1.7219
G1 X98.404 Y33.583 E1.7380
G1 X98.970 Y33.583 E1.7541
G1 X99.536 Y33.583 E1.7702
G1 X100.101 Y33.583 E1.7863
G1 X100.667 Y33.583 E1.8024
G1 X101.232 Y33.583 E1.8185
G1 X101.798 Y33.583 E1.8346
G1 X102.364 Y33.583 E1.8507
G1 X102.930 Y33.583 E1.8668
G1 X103.495 Y33.583 E1.8829
G1 X104.061 Y33.583 E1.8990
G1 X104.627 Y33.583 E1.9151
G1 X105.192 Y33.583 E1.9312
G92 E0.0000
G1 E-0.5000 F1800
G1 X106.629 Y33.323 F3600
G1 E0.0000 F1800
G92 E0.0000
G1 X106.597 Y33.291 E0.0013 F1800
G1 X107.057 Y33.185 E0.0147
G1 X107.129 Y33.257 E0.0176
G1 X107.629 Y33.192 E0.0320
G1 X107.518 Y33.080 E0.0365
G1 X107.853 Y33.004 E0.0462
G1 X107.980 Y32.976 E0.0499
G1 X108.130 Y33.126 E0.0560
G1 X108.522 Y33.075 E0.0672
G1 X108.628 Y33.059 E0.0703
G1 X108.446 Y32.877 E0.0776
G1 X108.912 Y32.777 E0.0911
G1 X109.119 Y32.985 E0.0995
G1 X109.611 Y32.911 E0.1136
G1 X109.378 Y32.677 E0.1230
G1 X109.477 Y32.656 E0.1259
G1 X109.848 Y32.582 E0.1367
G1 X110.103 Y32.837 E0.1469
G1 X110.324 Y32.803 E0.1532
G1 X110.591 Y32.759 E0.1609
G1 X110.320 Y32.489 E0.1718
G1 X110.792 Y32.395 E0.1855
G1 X111.076 Y32.678 E0.1969
G1 X111.561 Y32.598 E0.2109
G1 X111.264 Y32.301 E0.2228
G1 X111.507 Y32.253 E0.2298
G1 X111.739 Y32.211 E0.2365
G1 X112.046 Y32.517 E0.2489
G1 X112.531 Y32.436 E0.2628
G1 X112.218 Y32.124 E0.2754
G1 X112.697 Y32.037 E0.2893
G1 X113.008 Y32.348 E0.3018
G1 X113.485 Y32.259 E0.3156
G1 X113.175 Y31.950 E0.3280
G1 X113.654 Y31.863 E0.3419
G1 X113.962 Y32.171 E0.3543
G1 X114.439 Y32.082 E0.3681
G1 X114.135 Y31.778 E0.3803
G92 E0.0000
G1 E-0.5000 F1800
G1 X109.584 Y31.921 F3600
G1 X109.336 Y31.970
G1 X107.702 Y32.320
G1 X106.399 Y32.618
G1 X105.321 Y32.883
G1 X79.035 Y32.883
G1 X35.712 Y34.247
G1 E0.0000 F1800
G92 E0.0000
G1 X35.326 Y34.427 E0.0121 F1800
G1 X34.940 Y34.607 E0.0242
G1 X34.554 Y34.787 E0.0363
G1 X34.168 Y34.967 E0.0484
G92 E0.0000
G1 E-0.5000 F1800
G1 X29.153 Y37.306 F3600
G1 E0.0000 F1800
G92 E0.0000
G1 X29.374 Y37.527 E0.0089 F1800
G1 X29.387 Y37.583 E0.0105
G1 X28.865 Y37.583 E0.0254
G1 X28.767 Y37.485 E0.0293
G1 X28.557 Y37.583 E0.0359
G1 X28.300 Y37.583 E0.0432
G1 X27.734 Y37.583 E0.0593
G92 E0.0000
G1 E-0.5000 F1800
; feature solid layer
G1 X30.611 Y37.067 F3600
G1 E0.0000 F1800
G92 E0.0000
G1 X30.728 Y37.183 E0.0047 F1440
G1 X31.058 Y37.183 E0.0141
G1 X31.058 Y36.948 E0.0208
G1 X30.997 Y36.887 E0.0232
G92 E0.0000
G1 E-0.5000 F1800
; layer 2, Z = 0.380
M106 S51
; feature inner perimeter
; tool H0.200 W0.400
G1 Z0.380 F1002
G1 X31.358 Y36.388 F3600
G1 E0.0000 F1800
G92 E0.0000
G1 X31.358 Y37.483 E0.0346 F2144
G1 X29.676 Y37.483 E0.0878
G1 X29.613 Y37.201 E0.0969
G1 X31.358 Y36.388 E0.1577
G92 E0.0000
G1 E-0.5000 F1800
G1 X32.934 Y36.315 F3600
G1 X37.009 Y34.414
G1 X36.948 Y34.283
G1 X76.763 Y34.283
G1 X108.394 Y32.817
G1 E0.0000 F1800
G92 E0.0000
G1 X108.858 Y32.705 E0.0151 F2144
G1 X110.691 Y32.286 E0.0745
G1 X110.729 Y32.857 E0.0926
G1 X109.596 Y33.012 E0.1287
G1 X108.455 Y33.151 E0.1650
G1 X108.394 Y32.817 E0.1758
G92 E0.0000
G1 E-0.5000 F1800
G1 X111.511 Y32.136 F3600
G1 X111.528 Y32.076
G1 X111.665 Y31.861
G1 X111.786 Y31.750
G1 X112.084 Y31.646
G1 X112.419 Y31.681
G1 X112.700 Y31.877
G1 X113.589 Y31.682
G1 E0.0000 F1800
G92 E0.0000
G1 X114.352 Y31.531 E0.0246 F2144
G1 X114.488 Y32.292 E0.0490
G1 X113.754 Y32.414 E0.0725
G1 X113.589 Y31.682 E0.0962
G92 E0.0000
G1 E-0.5000 F1800
G1 X113.190 Y31.730 F3600
G1 E0.0000 F1800
G92 E0.0000
G1 X112.769 Y31.437 E0.0162 F2144
G1 X114.674 Y31.059 E0.0776
G1 X114.953 Y32.620 E0.1277
G1 X113.899 Y32.795 E0.1614
G1 X113.057 Y32.922 E0.1884
G1 X113.348 Y32.428 E0.2064
G1 X113.190 Y31.730 E0.2291
G92 E0.0000
G1 E-0.5000 F1800
G1 X112.509 Y31.744 F3600
G1 X112.419 Y31.681
G1 X112.084 Y31.646
G1 X111.786 Y31.750
G1 X111.776 Y31.758
G1 X111.201 Y31.770
G1 E0.0000 F1800
G92 E0.0000
G1 X111.084 Y32.170 E0.0132 F2144
G1 X111.112 Y32.597 E0.0267
