; G-Code generated by Simplify3D(R) Version 4.1.2
; Jan 3, 2021 at 11:44:36 AM
; Settings Summary
;   processName,No Support
;   applyToModels,Slim Case(2),Slim Case(4),Slim Case(5)
;   profileName,Wanhao Duplicator i3 (modified)
;   profileVersion,2019-12-15 13:33:55
;   baseProfile,
;   printMaterial,
;   printQuality,
;   printExtruders,
;   extruderName,Primary Extruder
;   extruderToolheadNumber,0
;   extruderDiameter,0.4
;   extruderAutoWidth,0
;   extruderWidth,0.4
;   extrusionMultiplier,0.95
;   extruderUseRetract,1
;   extruderRetractionDistance,0.5
;   extruderExtraRestartDistance,0
;   extruderRetractionZLift,0
;   extruderRetractionSpeed,1800
;   extruderUseCoasting,0
;   extruderCoastingDistance,0.2
;   extruderUseWipe,0
;   extruderWipeDistance,5
;   primaryExtruder,0
;   layerHeight,0.2
;   topSolidLayers,5
;   bottomSolidLayers,3
;   perimeterOutlines,3
;   printPerimetersInsideOut,1
;   startPointOption,2
;   startPointOriginX,0
;   startPointOriginY,0
;   sequentialIslands,0
;   spiralVaseMode,0
;   firstLayerHeightPercentage,90
;   firstLayerWidthPercentage,100
;   firstLayerUnderspeed,0.5
;   useRaft,0
;   raftExtruder,0
;   raftTopLayers,2
;   raftBaseLayers,2
;   raftOffset,3
;   raftSeparationDistance,0.14
;   raftTopInfill,100
;   aboveRaftSpeedMultiplier,0.3
;   useSkirt,1
;   skirtExtruder,0
;   skirtLayers,1
;   skirtOutlines,2
;   skirtOffset,5
;   usePrimePillar,0
;   primePillarExtruder,999
;   primePillarWidth,12
;   primePillarLocation,7
;   primePillarSpeedMultiplier,1
;   useOozeShield,0
;   oozeShieldExtruder,999
;   oozeShieldOffset,2
;   oozeShieldOutlines,1
;   oozeShieldSidewallShape,1
;   oozeShieldSidewallAngle,30
;   oozeShieldSpeedMultiplier,1
;   infillExtruder,0
;   internalInfillPattern,Rectilinear
;   externalInfillPattern,Rectilinear
;   infillPercentage,20
;   outlineOverlapPercentage,25
;   infillExtrusionWidthPercentage,125
;   minInfillLength,5
;   infillLayerInterval,1
;   internalInfillAngles,45,-45
;   overlapInternalInfillAngles,0
;   externalInfillAngles,45,-45
;   generateSupport,1
;   supportExtruder,0
;   supportInfillPercentage,50
;   supportExtraInflation,0
;   supportBaseLayers,0
;   denseSupportExtruder,0
;   denseSupportLayers,0
;   denseSupportInfillPercentage,70
;   supportLayerInterval,1
;   supportHorizontalPartOffset,0.3
;   supportUpperSeparationLayers,1
;   supportLowerSeparationLayers,1
;   supportType,0
;   supportGridSpacing,1
;   maxOverhangAngle,45
;   supportAngles,0
;   temperatureName,Primary Extruder,Heated Bed
;   temperatureNumber,0,0
;   temperatureSetpointCount,1,1
;   temperatureSetpointLayers,1,1
;   temperatureSetpointTemperatures,210,60
;   temperatureStabilizeAtStartup,1,1
;   temperatureHeatedBed,0,1
;   fanLayers,1,2,3
;   fanSpeeds,0,20,60
;   blipFanToFullPower,0
;   adjustSpeedForCooling,1
;   minSpeedLayerTime,15
;   minCoolingSpeedSlowdown,20
;   increaseFanForCooling,0
;   minFanLayerTime,45
;   maxCoolingFanSpeed,100
;   increaseFanForBridging,0
;   bridgingFanSpeed,100
;   use5D,1
;   relativeEdistances,0
;   allowEaxisZeroing,1
;   independentExtruderAxes,0
;   includeM10123,0
;   stickySupport,1
;   applyToolheadOffsets,0
;   gcodeXoffset,0
;   gcodeYoffset,0
;   gcodeZoffset,0
;   overrideMachineDefinition,1
;   machineTypeOverride,0
;   strokeXoverride,195
;   strokeYoverride,150
;   strokeZoverride,150
;   originOffsetXoverride,0
;   originOffsetYoverride,0
;   originOffsetZoverride,0
;   homeXdirOverride,-1
;   homeYdirOverride,-1
;   homeZdirOverride,-1
;   flipXoverride,1
;   flipYoverride,-1
;   flipZoverride,1
;   toolheadOffsets,0,0|0,0|0,0|0,0|0,0|0,0
;   overrideFirmwareConfiguration,1
;   firmwareTypeOverride,RepRap (Marlin/Repetier/Sprinter)
;   GPXconfigOverride,r2
;   baudRateOverride,115200
;   overridePrinterModels,1
;   printerModelsOverride
;   startingGcode,G28 ; home all axes
;   layerChangeGcode,
;   retractionGcode,
;   toolChangeGcode,
;   endingGcode,G28 X0 ; home X-axis,M104 S0 ; turn off extruder,M140 S0 ; turn off bed,M84 ; disable motors
;   exportFileFormat,gcode
;   celebration,0
;   celebrationSong,Random Song
;   postProcessing,
;   defaultSpeed,3600
;   outlineUnderspeed,0.5
;   solidInfillUnderspeed,0.8
;   supportUnderspeed,0.8
;   rapidXYspeed,3600
;   rapidZspeed,1002
;   minBridgingArea,50
;   bridgingExtraInflation,0
;   bridgingExtrusionMultiplier,1
;   bridgingSpeedMultiplier,1
;   useFixedBridgingAngle,0
;   fixedBridgingAngle,0
;   applyBridgingToPerimeters,0
;   filamentDiameters,1.75|1.75|1.75|1.75|1.75|1.75
;   filamentPricesPerKg,46|46|46|46|46|46
;   filamentDensities,1.25|1.25|1.25|1.25|1.25|1.25
;   useMinPrintHeight,0
;   minPrintHeight,0
;   useMaxPrintHeight,0
;   maxPrintHeight,0
;   useDiaphragm,0
;   diaphragmLayerInterval,20
;   robustSlicing,1
;   mergeAllIntoSolid,0
;   onlyRetractWhenCrossingOutline,0
;   retractBetweenLayers,1
;   useRetractionMinTravel,0
;   retractionMinTravel,3
;   retractWhileWiping,0
;   onlyWipeOutlines,1
;   avoidCrossingOutline,1
;   maxMovementDetourFactor,3
;   toolChangeRetractionDistance,12
;   toolChangeExtraRestartDistance,-0.5
;   toolChangeRetractionSpeed,600
;   externalThinWallType,0
;   internalThinWallType,2
;   thinWallAllowedOverlapPercentage,10
;   singleExtrusionMinLength,1
;   singleExtrusionMinPrintingWidthPercentage,50
;   singleExtrusionMaxPrintingWidthPercentage,200
;   singleExtrusionEndpointExtension,0.2
;   horizontalSizeCompensation,0
G90
M82
M106 S0
M140 S60
M190 S60
M104 S210 T0
M109 S210 T0
G28 ; home all axes
; process No Support
; layer 1, Z = 0.180
T0
G92 E0.0000
G1 E-0.5000 F1800
; feature skirt
; tool H0.180 W0.400
G1 Z0.180 F1002
G1 X25.794 Y18.395 F3600
G1 E0.0000 F1800
G92 E0.0000
G1 X27.079 Y17.410 E0.0461 F1800
G1 X28.504 Y16.862 E0.0895
G1 X29.517 Y16.674 E0.1188
G1 X87.777 Y16.674 E1.7755
G1 X88.325 Y16.728 E1.7912
G1 X89.245 Y16.911 E1.8179
G1 X90.264 Y17.334 E1.8492
G1 X90.500 Y17.491 E1.8573
G1 X90.736 Y17.333 E1.8654
G1 X91.755 Y16.911 E1.8967
G1 X92.675 Y16.728 E1.9234
G1 X93.222 Y16.674 E1.9390
G1 X151.381 Y16.674 E3.5929
G1 X152.199 Y16.796 E3.6164
G1 X153.411 Y17.164 E3.6525
G1 X154.592 Y17.870 E3.6916
G1 X155.650 Y18.925 E3.7341
G1 X156.365 Y20.116 E3.7736
G1 X156.733 Y21.334 E3.8098
G1 X156.853 Y22.148 E3.8332
G1 X156.853 Y82.818 E5.5585
G1 X156.752 Y83.566 E5.5799
G1 X156.433 Y84.721 E5.6140
G1 X155.779 Y85.895 E5.6522
G1 X154.728 Y87.029 E5.6962
G1 X153.466 Y87.819 E5.7385
G1 X152.199 Y88.204 E5.7762
G1 X151.381 Y88.326 E5.7997
G1 X93.223 Y88.326 E7.4536
G1 X92.677 Y88.272 E7.4692
G1 X91.756 Y88.089 E7.4959
G1 X90.735 Y87.667 E7.5273
G1 X90.500 Y87.509 E7.5353
G1 X90.263 Y87.667 E7.5434
G1 X89.245 Y88.089 E7.5748
G1 X88.325 Y88.272 E7.6014
G1 X87.777 Y88.326 E7.6171
G1 X29.757 Y88.326 E9.2670
G1 X29.209 Y88.272 E9.2827
G1 X28.289 Y88.089 E9.3094
G1 X27.271 Y87.667 E9.3407
G1 X26.261 Y86.993 E9.3752
G1 X25.481 Y86.212 E9.4066
G1 X24.806 Y85.202 E9.4412
G1 X24.384 Y84.183 E9.4726
G1 X24.200 Y83.263 E9.4992
G1 X24.147 Y82.715 E9.5149
G1 X24.147 Y22.285 E11.2334
G1 X24.201 Y21.737 E11.2490
G1 X24.395 Y20.761 E11.2773
G1 X24.883 Y19.646 E11.3119
G1 X25.794 Y18.395 E11.3559
G92 E0.0000
G1 E-0.5000 F1800
G1 X26.083 Y18.678 F3600
G1 E0.0000 F1800
G92 E0.0000
G1 X27.277 Y17.763 E0.0428 F1800
G1 X28.613 Y17.249 E0.0835
G1 X29.554 Y17.074 E0.1107
G1 X87.758 Y17.074 E1.7659
G1 X88.266 Y17.124 E1.7804
G1 X89.128 Y17.296 E1.8054
G1 X90.075 Y17.688 E1.8345
G1 X90.500 Y17.972 E1.8491
G1 X90.925 Y17.688 E1.8636
G1 X91.871 Y17.296 E1.8927
G1 X92.733 Y17.124 E1.9177
G1 X93.242 Y17.074 E1.9323
G1 X151.351 Y17.074 E3.5847
G1 X152.111 Y17.187 E3.6066
G1 X153.248 Y17.532 E3.6404
G1 X154.344 Y18.188 E3.6767
G1 X155.333 Y19.173 E3.7164
G1 X155.996 Y20.279 E3.7531
G1 X156.341 Y21.421 E3.7870
G1 X156.453 Y22.178 E3.8087
G1 X156.453 Y82.791 E5.5324
G1 X156.359 Y83.486 E5.5523
G1 X156.060 Y84.568 E5.5843
G1 X155.453 Y85.659 E5.6198
G1 X154.471 Y86.718 E5.6608
G1 X153.299 Y87.452 E5.7002
G1 X152.111 Y87.813 E5.7355
G1 X151.351 Y87.926 E5.7573
G1 X93.243 Y87.926 E7.4098
G1 X92.735 Y87.876 E7.4243
G1 X91.873 Y87.705 E7.4493
G1 X90.925 Y87.312 E7.4785
G1 X90.500 Y87.028 E7.4930
G1 X90.073 Y87.313 E7.5076
G1 X89.128 Y87.704 E7.5367
G1 X88.267 Y87.875 E7.5616
G1 X87.758 Y87.926 E7.5762
G1 X29.777 Y87.926 E9.2250
G1 X29.268 Y87.875 E9.2396
G1 X28.406 Y87.704 E9.2646
G1 X27.461 Y87.312 E9.2936
G1 X26.516 Y86.682 E9.3259
G1 X25.791 Y85.957 E9.3551
G1 X25.160 Y85.012 E9.3874
G1 X24.768 Y84.066 E9.4165
G1 X24.597 Y83.204 E9.4415
G1 X24.547 Y82.695 E9.4561
G1 X24.547 Y22.304 E11.1734
G1 X24.597 Y21.796 E11.1880
G1 X24.779 Y20.882 E11.2145
G1 X25.232 Y19.846 E11.2466
G1 X26.083 Y18.678 E11.2877
G92 E0.0000
G1 E-0.5000 F1800
; feature inner perimeter
G1 X29.984 Y22.495 F3600
G1 X29.972 Y22.511
G1 X30.747 Y23.274
G1 E0.0000 F1800
G92 E0.0000
G1 X86.788 Y23.274 E1.5937 F1350
G1 X86.788 Y81.726 E3.2559
G1 X30.747 Y81.726 E4.8495
G1 X30.747 Y23.274 E6.5117
G92 E0.0000
G1 E-0.5000 F1800
G1 X30.347 Y22.874 F3600
G1 E0.0000 F1800
G92 E0.0000
G1 X87.188 Y22.874 E1.6164 F1350
G1 X87.188 Y82.126 E3.3014
G1 X30.347 Y82.126 E4.9178
G1 X30.347 Y22.874 E6.6027
G92 E0.0000
G1 E-0.5000 F1800
; feature outer perimeter
G1 X30.052 Y22.474 F3600
G1 E0.0000 F1800
G92 E0.0000
G1 X87.482 Y22.474 E1.6332 F900
G1 X87.533 Y22.484 E1.6347
G1 X87.560 Y22.502 E1.6356
G1 X87.578 Y22.529 E1.6365
G1 X87.588 Y22.580 E1.6379
G1 X87.588 Y82.420 E3.3397
G1 X87.578 Y82.471 E3.3411
G1 X87.560 Y82.498 E3.3420
G1 X87.533 Y82.515 E3.3430
G1 X87.482 Y82.526 E3.3444
G1 X30.052 Y82.526 E4.9776
G1 X30.001 Y82.515 E4.9791
G1 X29.974 Y82.498 E4.9800
G1 X29.957 Y82.471 E4.9809
G1 X29.947 Y82.420 E4.9824
G1 X29.947 Y22.580 E6.6841
G1 X29.956 Y22.533 E6.6854
G1 X29.984 Y22.495 E6.6868
G1 X29.999 Y22.485 E6.6873
G1 X30.052 Y22.474 E6.6888
G92 E0.0000
G1 E-0.5000 F1800
; feature solid layer
G1 X86.465 Y23.574 F3600
G1 E0.0000 F1800
G92 E0.0000
G1 X86.488 Y23.598 E0.0009 F1440
G1 X86.488 Y24.163 E0.0170
G1 X85.899 Y23.574 E0.0407
G1 X85.333 Y23.574 E0.0568
G1 X86.488 Y24.729 E0.1032
G1 X86.488 Y25.295 E0.1193
G1 X84.767 Y23.574 E0.1885
G1 X84.202 Y23.574 E0.2046
G1 X86.488 Y25.860 E0.2965
G1 X86.488 Y26.426 E0.3126
G1 X83.636 Y23.574 E0.4273
G1 X83.070 Y23.574 E0.4434
G1 X86.488 Y26.992 E0.5808
G1 X86.488 Y27.557 E0.5969
G1 X82.505 Y23.574 E0.7571
G1 X81.939 Y23.574 E0.7732
G1 X86.488 Y28.123 E0.9561
G1 X86.488 Y28.689 E0.9722
G1 X81.373 Y23.574 E1.1779
G1 X80.808 Y23.574 E1.1940
G1 X86.488 Y29.255 E1.4224
G1 X86.488 Y29.820 E1.4385
G1 X80.242 Y23.574 E1.6897
G1 X79.676 Y23.574 E1.7058
G1 X86.488 Y30.386 E1.9797
G1 X86.488 Y30.952 E1.9958
G1 X79.111 Y23.574 E2.2925
G1 X78.545 Y23.574 E2.3086
G1 X86.488 Y31.517 E2.6280
G1 X86.488 Y32.083 E2.6441
G1 X77.979 Y23.574 E2.9863
G1 X77.414 Y23.574 E3.0024
G1 X86.488 Y32.649 E3.3673
G1 X86.488 Y33.214 E3.3834
G1 X76.848 Y23.574 E3.7711
G1 X76.282 Y23.574 E3.7872
G1 X86.488 Y33.780 E4.1976
G1 X86.488 Y34.346 E4.2137
G1 X75.716 Y23.574 E4.6469
G1 X75.151 Y23.574 E4.6630
G1 X86.488 Y34.911 E5.1189
G1 X86.488 Y35.477 E5.1350
G1 X74.585 Y23.574 E5.6137
G1 X74.019 Y23.574 E5.6298
G1 X86.488 Y36.043 E6.1312
G1 X86.488 Y36.608 E6.1473
G1 X73.454 Y23.574 E6.6715
G1 X72.888 Y23.574 E6.6876
G1 X86.488 Y37.174 E7.2345
G1 X86.488 Y37.740 E7.2506
G1 X72.322 Y23.574 E7.8203
G1 X71.757 Y23.574 E7.8364
G1 X86.488 Y38.305 E8.4288
G1 X86.488 Y38.871 E8.4449
G1 X71.191 Y23.574 E9.0601
G1 X70.625 Y23.574 E9.0761
G1 X86.488 Y39.437 E9.7141
G1 X86.488 Y40.003 E9.7302
G1 X70.060 Y23.574 E10.3909
G1 X69.494 Y23.574 E10.4069
G1 X86.488 Y40.568 E11.0904
G1 X86.488 Y41.134 E11.1065
G1 X68.928 Y23.574 E11.8126
G1 X68.363 Y23.574 E11.8287
G1 X86.488 Y41.700 E12.5577
G1 X86.488 Y42.265 E12.5738
G1 X67.797 Y23.574 E13.3254
G1 X67.231 Y23.574 E13.3415
G1 X86.488 Y42.831 E14.1160
G1 X86.488 Y43.397 E14.1321
G1 X66.666 Y23.574 E14.9292
G1 X66.100 Y23.574 E14.9453
G1 X86.488 Y43.962 E15.7653
G1 X86.488 Y44.528 E15.7813
G1 X65.534 Y23.574 E16.6240
G1 X64.968 Y23.574 E16.6401
G1 X86.488 Y45.094 E17.5056
G1 X86.488 Y45.659 E17.5216
G1 X64.403 Y23.574 E18.4098
G1 X63.837 Y23.574 E18.4259
G1 X86.488 Y46.225 E19.3368
G1 X86.488 Y46.791 E19.3529
G1 X63.271 Y23.574 E20.2866
G1 X62.706 Y23.574 E20.3027
G1 X86.488 Y47.356 E21.2591
G1 X86.488 Y47.922 E21.2752
G1 X62.140 Y23.574 E22.2544
G1 X61.574 Y23.574 E22.2705
G1 X86.488 Y48.488 E23.2724
G1 X86.488 Y49.054 E23.2885
G1 X61.009 Y23.574 E24.3132
G1 X60.443 Y23.574 E24.3293
G1 X86.488 Y49.619 E25.3767
G1 X86.488 Y50.185 E25.3928
G1 X59.877 Y23.574 E26.4630
G1 X59.312 Y23.574 E26.4791
G1 X86.488 Y50.751 E27.5720
G1 X86.488 Y51.316 E27.5881
G1 X58.746 Y23.574 E28.7038
G1 X58.180 Y23.574 E28.7199
G1 X86.488 Y51.882 E29.8583
G1 X86.488 Y52.448 E29.8744
G1 X57.615 Y23.574 E31.0356
G1 X57.049 Y23.574 E31.0517
G1 X86.488 Y53.013 E32.2356
G1 X86.488 Y53.579 E32.2517
G1 X56.483 Y23.574 E33.4584
G1 X55.918 Y23.574 E33.4745
G1 X86.488 Y54.145 E34.7039
G1 X86.488 Y54.710 E34.7200
G1 X55.352 Y23.574 E35.9722
G1 X54.786 Y23.574 E35.9882
G1 X86.488 Y55.276 E37.2632
G1 X86.488 Y55.842 E37.2793
G1 X54.220 Y23.574 E38.5769
G1 X53.655 Y23.574 E38.5930
G1 X86.488 Y56.407 E39.9135
G1 X86.488 Y56.973 E39.9296
G1 X53.089 Y23.574 E41.2727
G1 X52.523 Y23.574 E41.2888
G1 X86.488 Y57.539 E42.6548
G1 X86.488 Y58.104 E42.6708
G1 X51.958 Y23.574 E44.0595
G1 X51.392 Y23.574 E44.0756
G1 X86.488 Y58.670 E45.4870
G1 X86.488 Y59.236 E45.5031
G1 X50.826 Y23.574 E46.9373
G1 X50.261 Y23.574 E46.9534
G1 X86.488 Y59.802 E48.4103
G1 X86.488 Y60.367 E48.4264
G1 X49.695 Y23.574 E49.9061
G1 X49.129 Y23.574 E49.9222
G1 X86.488 Y60.933 E51.4246
G1 X86.488 Y61.499 E51.4407
G1 X48.564 Y23.574 E52.9659
G1 X47.998 Y23.574 E52.9820
G1 X86.488 Y62.064 E54.5299
G1 X86.488 Y62.630 E54.5460
G1 X47.432 Y23.574 E56.1167
G1 X46.867 Y23.574 E56.1328
G1 X86.488 Y63.196 E57.7262
G1 X86.488 Y63.761 E57.7423
G1 X46.301 Y23.574 E59.3585
G1 X45.735 Y23.574 E59.3746
G1 X86.488 Y64.327 E61.0135
G1 X86.488 Y64.893 E61.0296
G1 X45.169 Y23.574 E62.6913
G1 X44.604 Y23.574 E62.7073
G1 X86.488 Y65.458 E64.3918
G1 X86.488 Y66.024 E64.4079
G1 X44.038 Y23.574 E66.1150
G1 X43.472 Y23.574 E66.1311
G1 X86.488 Y66.590 E67.8611
G1 X86.488 Y67.155 E67.8772
G1 X42.907 Y23.574 E69.6298
G1 X42.341 Y23.574 E69.6459
G1 X86.488 Y67.721 E71.4214
G1 X86.488 Y68.287 E71.4374
G1 X41.775 Y23.574 E73.2356
G1 X41.210 Y23.574 E73.2517
G1 X86.488 Y68.852 E75.0726
G1 X86.488 Y69.418 E75.0887
G1 X40.644 Y23.574 E76.9324
G1 X40.078 Y23.574 E76.9485
G1 X86.488 Y69.984 E78.8149
G1 X86.488 Y70.550 E78.8310
G1 X39.513 Y23.574 E80.7202
G1 X38.947 Y23.574 E80.7363
G1 X86.488 Y71.115 E82.6482
G1 X86.488 Y71.681 E82.6643
G1 X38.381 Y23.574 E84.5990
G1 X37.816 Y23.574 E84.6151
G1 X86.488 Y72.247 E86.5725
G1 X86.488 Y72.812 E86.5886
G1 X37.250 Y23.574 E88.5688
G1 X36.684 Y23.574 E88.5849
G1 X86.488 Y73.378 E90.5878
G1 X86.488 Y73.944 E90.6039
G1 X36.119 Y23.574 E92.6296
G1 X35.553 Y23.574 E92.6456
G1 X86.488 Y74.509 E94.6941
G1 X86.488 Y75.075 E94.7102
G1 X34.987 Y23.574 E96.7813
G1 X34.421 Y23.574 E96.7974
G1 X86.488 Y75.641 E98.8914
G1 X86.488 Y76.206 E98.9074
G1 X33.856 Y23.574 E101.0241
G1 X33.290 Y23.574 E101.0402
G1 X86.488 Y76.772 E103.1796
G1 X86.488 Y77.338 E103.1957
G1 X32.724 Y23.574 E105.3579
G1 X32.159 Y23.574 E105.3740
G1 X86.488 Y77.903 E107.5589
G1 X86.488 Y78.469 E107.5750
G1 X31.593 Y23.574 E109.7827
G1 X31.047 Y23.574 E109.7982
G1 X31.047 Y23.594 E109.7988
G1 X86.488 Y79.035 E112.0284
G1 X86.488 Y79.601 E112.0445
G1 X31.047 Y24.159 E114.2742
G1 X31.047 Y24.725 E114.2903
G1 X86.488 Y80.166 E116.5199
G1 X86.488 Y80.732 E116.5360
G1 X31.047 Y25.291 E118.7657
G1 X31.047 Y25.856 E118.7818
G1 X86.488 Y81.298 E121.0114
G1 X86.488 Y81.426 E121.0151
G1 X86.050 Y81.426 E121.0275
G1 X31.047 Y26.422 E123.2396
G1 X31.047 Y26.988 E123.2557
G1 X85.485 Y81.426 E125.4450
G1 X84.919 Y81.426 E125.4611
G1 X31.047 Y27.553 E127.6276
G1 X31.047 Y28.119 E127.6437
G1 X84.353 Y81.426 E129.7875
G1 X83.787 Y81.426 E129.8036
G1 X31.047 Y28.685 E131.9247
G1 X31.047 Y29.250 E131.9407
G1 X83.222 Y81.426 E134.0390
